<?xml version="1.0" encoding="UTF-8"?>
<map version="1.10" tiledversion="1.11.2" orientation="orthogonal" renderorder="right-down" width="30" height="30" tilewidth="32" tileheight="32" infinite="0" nextlayerid="9" nextobjectid="117">
 <tileset firstgid="1" source="../tiles/Tiles.tsx"/>
 <tileset firstgid="80" source="../tiles/Tileset.tsx"/>
 <tileset firstgid="108" source="D:/Download/Tileset.tsx"/>
 <layer id="3" name="Ground" width="30" height="30">
  <data encoding="csv">
0,0,0,0,0,0,0,0,0,0,0,0,28,28,28,0,0,0,0,0,0,0,0,28,28,0,0,28,0,0,
0,28,28,28,28,28,28,28,28,28,28,28,28,28,28,28,28,28,29,27,27,29,29,28,28,28,28,28,28,0,
0,28,28,28,28,28,28,28,28,28,28,28,28,28,28,28,28,28,29,27,27,27,29,29,29,28,28,28,28,0,
0,28,28,28,28,28,28,28,28,28,28,28,28,28,28,28,28,28,29,29,27,27,27,27,29,29,29,28,28,0,
0,28,28,28,28,28,28,28,28,28,28,28,28,28,28,28,28,28,28,29,29,27,27,27,27,27,29,28,28,0,
0,28,28,28,28,28,28,28,28,28,28,28,28,28,28,28,28,28,28,28,29,29,29,27,27,27,29,28,28,0,
0,28,28,28,28,28,28,28,28,28,28,28,28,28,28,28,28,28,28,28,28,28,29,29,27,27,29,28,28,0,
0,28,28,28,28,28,28,28,28,28,28,28,28,28,28,28,28,28,28,28,28,28,28,29,27,27,29,28,28,0,
0,28,28,28,28,28,28,28,28,28,28,28,28,28,28,28,28,28,28,28,28,28,28,29,27,27,29,28,28,0,
0,29,29,29,29,29,29,29,29,29,29,28,28,28,28,28,28,28,28,28,28,28,28,29,27,27,29,28,28,0,
27,27,27,27,27,27,27,27,27,27,29,28,28,28,28,28,28,28,28,28,28,28,28,29,27,27,29,28,28,0,
27,27,27,27,27,27,27,27,27,27,29,28,28,28,28,28,28,28,28,28,28,28,28,29,27,27,29,28,28,0,
0,29,29,29,29,29,29,29,27,27,29,28,28,28,28,28,28,28,28,28,28,28,28,29,27,27,29,28,28,0,
0,28,28,28,28,28,28,29,27,27,29,28,28,28,28,28,29,27,27,29,28,28,28,29,27,27,29,28,28,0,
0,28,28,28,28,29,29,29,27,27,29,28,28,28,29,29,29,27,27,29,29,29,29,29,27,27,29,28,28,0,
0,28,28,28,29,29,27,27,27,27,29,28,28,29,29,27,27,27,27,27,27,27,27,27,27,27,29,28,28,0,
0,28,28,28,29,27,27,27,27,27,29,28,28,29,27,27,27,27,27,27,27,27,27,27,27,27,29,28,28,0,
0,28,28,28,29,27,27,113,29,29,29,28,28,29,27,27,27,27,27,27,29,29,29,27,27,29,29,28,28,0,
28,28,28,28,29,27,27,29,28,28,28,28,28,29,27,27,29,29,29,29,29,28,29,27,27,29,28,28,28,0,
28,28,28,28,29,27,27,29,28,28,28,28,28,29,27,27,29,28,28,28,28,28,29,27,27,29,28,28,28,0,
28,28,28,28,29,27,27,29,28,28,28,28,28,29,27,27,29,28,28,28,28,28,29,27,27,29,28,28,28,0,
28,28,28,28,29,27,27,29,28,28,28,28,28,29,27,27,29,28,28,28,28,28,29,27,27,29,28,28,28,0,
0,28,28,28,29,27,27,29,28,28,28,28,28,29,27,27,29,28,28,28,28,28,29,27,27,29,28,28,28,0,
0,28,28,28,29,27,27,29,29,28,28,28,28,29,27,27,29,28,28,28,28,29,29,27,27,29,28,28,28,0,
0,28,28,28,29,27,27,27,29,29,29,29,29,29,27,27,29,28,28,28,29,29,27,27,27,29,28,28,28,0,
0,28,28,28,29,27,27,27,27,27,27,27,27,27,27,27,29,28,28,28,29,0,27,27,27,29,28,28,28,0,
0,28,28,28,29,29,27,27,27,27,27,27,27,27,27,27,29,28,28,28,29,0,27,27,29,29,28,28,28,0,
0,28,28,28,28,29,29,29,29,29,29,29,29,29,29,29,29,28,28,28,29,0,27,29,29,28,28,28,28,0,
0,28,28,28,28,28,28,28,28,28,28,28,28,28,28,28,28,28,28,28,29,0,27,29,28,28,28,28,28,0,
0,0,0,0,0,0,0,0,0,0,0,0,0,0,0,0,0,0,0,0,0,0,0,0,0,0,0,0,0,0
</data>
 </layer>
 <layer id="5" name="Wall" width="30" height="30">
  <data encoding="csv">
26,26,26,26,26,26,26,26,26,26,26,26,26,26,26,26,26,26,85,83,83,85,26,26,26,26,26,26,26,26,
26,0,0,0,0,0,0,0,0,0,0,0,0,0,0,0,0,0,0,0,0,0,0,21,0,0,0,21,0,26,
26,0,0,0,19,0,0,0,0,0,0,0,0,0,0,0,0,0,0,0,0,0,0,0,0,0,0,21,0,26,
26,0,0,0,0,0,0,0,0,0,0,0,0,0,0,0,0,0,0,0,0,0,0,0,0,0,0,0,0,26,
26,0,0,0,0,0,0,0,0,0,0,0,0,23,0,0,0,0,0,0,0,0,0,0,0,0,0,0,0,26,
26,18,0,0,0,0,0,0,0,0,0,0,0,0,0,0,0,0,0,0,32,0,0,0,0,0,0,0,0,26,
26,18,0,0,0,0,0,0,0,0,0,0,0,0,0,0,0,19,0,0,0,0,0,0,0,0,0,0,0,26,
26,0,0,0,0,0,0,0,0,0,0,0,0,0,0,0,0,0,0,0,0,0,0,0,0,0,0,0,0,26,
26,0,0,0,23,0,0,0,0,0,0,0,0,0,0,0,0,0,0,0,0,0,0,0,0,0,0,0,0,26,
26,0,0,0,0,0,0,0,0,0,0,0,0,0,0,0,0,0,0,0,0,0,0,0,0,0,0,21,0,26,
0,0,0,0,0,0,0,0,0,0,0,0,0,0,0,0,0,0,0,0,0,0,0,0,0,0,0,0,0,26,
0,0,0,0,0,0,0,0,0,0,0,0,0,0,0,0,0,0,0,0,0,0,0,0,0,0,0,19,0,26,
26,0,0,0,0,0,0,0,0,0,0,0,0,0,0,22,0,0,0,0,0,0,0,0,0,0,0,0,0,26,
26,0,0,0,0,19,0,0,0,0,0,0,0,0,0,0,0,0,0,0,0,0,0,0,0,0,0,0,0,26,
26,0,0,0,0,0,0,0,0,0,0,0,0,0,0,0,0,0,0,0,0,0,0,0,0,0,0,0,0,26,
26,0,0,0,0,0,0,0,0,0,0,0,0,0,0,0,0,0,0,0,0,0,0,0,0,0,0,0,0,26,
26,0,0,0,0,0,0,0,0,0,0,17,0,0,0,0,0,0,0,0,0,0,0,0,0,0,0,0,0,26,
26,0,0,0,0,0,0,0,0,0,0,0,0,34,0,0,0,0,0,0,0,0,0,0,0,0,0,0,0,26,
26,0,0,0,0,0,0,0,0,0,0,0,0,0,0,0,0,0,0,0,0,0,0,0,0,0,21,0,0,26,
26,0,0,0,0,0,0,0,0,0,0,0,0,0,0,0,0,0,0,0,0,0,0,0,0,0,0,21,0,26,
26,0,0,0,0,0,0,0,0,0,0,0,0,0,0,0,0,0,0,0,0,0,0,0,0,0,19,0,0,26,
26,0,0,0,0,0,0,0,23,0,0,0,0,0,0,0,0,0,0,0,0,0,0,0,0,0,0,0,0,26,
26,0,0,0,0,0,0,0,0,0,0,0,0,0,0,0,0,0,23,0,0,0,0,0,0,0,0,0,0,26,
26,0,0,0,0,0,0,0,0,0,0,0,0,0,0,0,0,0,0,0,0,0,0,0,0,0,0,0,0,26,
26,0,0,0,0,0,0,0,0,0,0,0,0,0,0,0,0,0,0,0,0,0,0,0,0,0,0,0,0,26,
26,0,0,0,0,0,0,0,0,0,0,0,0,0,0,0,0,0,0,0,0,27,0,0,0,0,0,0,0,26,
26,0,0,0,0,0,0,0,0,0,0,0,0,0,0,0,0,0,0,0,0,27,0,0,0,0,0,0,0,26,
26,0,0,0,0,0,0,0,0,0,0,0,0,34,0,0,0,0,0,0,0,27,0,0,0,0,0,0,0,26,
26,0,0,0,0,0,0,0,0,0,0,0,18,0,0,0,17,0,0,0,0,27,0,0,17,0,0,0,0,26,
26,26,26,26,26,26,26,26,26,26,26,26,26,26,26,26,26,26,26,26,85,83,83,85,26,26,26,26,26,26
</data>
 </layer>
 <layer id="6" name="Object" width="30" height="30">
  <data encoding="csv">
0,0,0,0,0,0,0,0,0,0,0,0,0,0,0,0,0,0,90,90,90,0,0,0,0,0,0,0,0,0,
0,0,0,0,0,0,0,0,0,0,0,0,17,0,0,0,18,0,32,0,0,32,0,0,0,0,0,0,0,0,
0,0,0,0,0,0,17,17,0,0,0,0,0,0,0,0,0,0,0,0,0,0,0,0,91,91,0,0,0,0,
0,0,0,0,0,0,17,17,0,0,20,0,0,0,0,0,0,0,25,0,0,0,0,0,0,25,0,18,0,0,
0,0,24,16,0,0,0,0,0,0,0,0,0,0,0,0,0,0,0,0,0,0,0,0,0,0,0,0,0,0,
0,0,0,0,0,0,0,0,0,0,0,0,0,0,0,16,0,0,0,0,0,0,0,0,0,0,32,0,0,0,
0,0,0,0,0,0,0,0,0,0,24,0,0,0,0,0,0,0,0,0,18,0,25,0,0,0,0,17,0,0,
0,0,0,0,0,0,0,0,0,0,0,0,0,0,0,0,0,0,0,0,0,0,0,0,0,0,0,17,0,0,
0,0,0,0,0,0,0,16,0,0,0,0,16,0,0,0,0,0,0,0,0,0,0,0,0,0,0,0,0,0,
0,33,25,0,0,0,0,0,0,25,0,0,0,0,0,0,0,0,0,0,0,17,0,0,0,0,0,0,0,0,
0,0,0,0,0,0,0,0,0,0,0,0,0,0,0,0,0,0,0,0,0,0,0,32,0,0,0,0,0,0,
0,0,0,0,0,0,0,0,0,0,33,0,0,21,0,0,0,0,0,0,0,0,0,0,0,0,0,0,0,0,
0,33,25,0,0,0,0,0,0,0,0,0,0,0,19,0,0,0,0,0,19,0,0,0,0,0,0,0,0,0,
0,0,0,0,0,0,0,0,0,0,0,0,24,0,0,0,0,0,0,0,0,0,0,0,0,0,32,0,0,0,
0,0,0,0,0,0,0,33,0,0,0,0,0,0,0,0,34,0,0,34,0,0,25,0,0,0,0,0,0,0,
0,24,0,0,25,0,0,0,0,0,0,0,0,25,0,0,0,0,0,0,0,0,0,0,0,0,0,18,0,0,
0,0,16,0,0,0,0,0,0,0,0,0,0,0,0,0,0,0,0,0,0,0,0,0,0,0,0,18,0,0,
0,0,0,0,0,0,0,0,25,0,33,0,0,0,0,0,0,0,0,0,0,25,0,0,0,25,0,0,0,0,
0,0,0,0,33,0,0,33,0,0,0,0,0,0,0,0,25,0,0,0,34,0,0,0,0,0,0,0,0,0,
0,0,0,0,0,0,0,0,0,0,0,0,0,0,0,0,0,0,0,0,0,0,0,0,0,0,0,0,0,0,
0,0,0,0,0,0,0,0,0,0,0,0,0,0,0,0,0,0,0,0,0,0,0,0,0,32,0,0,0,0,
0,0,19,0,0,0,0,0,0,0,0,0,0,0,0,0,34,0,0,0,0,0,0,0,0,0,0,0,0,0,
0,21,0,0,0,0,0,0,16,0,0,0,0,0,0,0,0,0,0,0,0,0,0,0,0,0,0,0,0,0,
0,0,0,0,0,0,0,25,0,0,0,0,0,0,0,0,0,0,16,0,0,25,0,0,0,0,0,0,0,0,
0,18,18,0,33,0,0,0,33,0,0,0,25,0,0,0,0,0,0,0,0,0,0,0,0,0,18,18,0,0,
0,18,18,0,0,0,0,0,0,0,0,0,0,0,0,0,0,0,0,0,32,0,0,0,0,0,18,18,0,0,
0,0,0,0,0,0,0,0,0,0,0,0,0,0,0,0,0,24,0,0,0,0,0,0,25,0,0,0,0,0,
0,0,17,17,0,25,0,0,0,0,0,0,0,0,0,25,0,0,0,25,0,0,0,32,0,0,20,0,0,0,
0,0,17,17,0,0,0,0,0,0,24,0,0,0,0,0,0,0,0,0,0,0,0,0,0,0,0,0,0,0,
0,0,0,0,0,0,0,0,0,0,0,0,0,0,0,0,0,0,0,0,91,91,91,0,0,0,0,0,0,0
</data>
 </layer>
 <objectgroup id="7" name="collision">
  <object id="1" x="131.333" y="260" width="120" height="17.3333"/>
  <object id="4" x="233.333" y="256" width="46.6667" height="29.3333">
   <ellipse/>
  </object>
  <object id="7" x="46" y="771" width="72" height="63"/>
  <object id="9" x="80.5" y="867.5" width="69" height="51"/>
  <object id="10" x="399" y="904.5" width="38" height="21.5"/>
  <object id="14" x="523" y="906.5" width="44" height="22.5"/>
  <object id="15" x="74.5" y="682.5" width="44" height="20"/>
  <object id="16" x="39.5" y="704.5" width="49" height="32"/>
  <object id="18" x="418.5" y="127" width="121" height="26"/>
  <object id="20" x="684.5" y="289" width="39" height="21"/>
  <object id="21" x="653" y="197.5" width="39" height="21.5"/>
  <object id="23" x="552" y="204" width="46.5" height="18.5"/>
  <object id="24" x="525" y="39.5" width="39.5" height="21.5"/>
  <object id="25" x="396.5" y="39.5" width="39" height="15.5"/>
  <object id="26" x="203" y="60" width="71.5" height="57.5"/>
  <object id="27" x="136.5" y="78" width="47" height="19"/>
  <object id="28" x="43" y="158.5" width="43" height="62.5"/>
  <object id="29" x="168.5" y="429" width="46" height="18"/>
  <object id="30" x="364" y="517" width="40" height="18"/>
  <object id="31" x="578.5" y="703.75" width="122.25" height="24"/>
  <object id="32" x="842" y="654.5" width="45" height="15.5"/>
  <object id="33" x="845.5" y="770" width="70.5" height="60.5"/>
  <object id="34" x="780" y="899.5" width="40" height="18.5"/>
  <object id="35" x="875.5" y="485" width="42" height="54.5"/>
  <object id="36" x="873.5" y="366" width="46.5" height="15.5"/>
  <object id="37" x="875.5" y="105.5" width="42.5" height="17.5"/>
  <object id="38" x="779.5" y="68" width="71.5" height="20.5"/>
  <object id="39" x="259.5" y="672" width="120.5" height="24"/>
  <object id="40" x="60.5455" y="477.455" width="6.72727" height="23.8182"/>
  <object id="41" x="92.3636" y="125.636" width="6.72727" height="23.4545"/>
  <object id="42" x="573.545" y="830.455" width="5" height="23.2727"/>
  <object id="43" x="349" y="893.625" width="5.75" height="24.5"/>
  <object id="44" x="349.545" y="189.636" width="5.09091" height="24.0909"/>
  <object id="45" x="413.455" y="414.273" width="4.63636" height="23.4545"/>
  <object id="46" x="876.333" y="195" width="40.3333" height="50.6667"/>
  <object id="47" x="106.545" y="130.364" width="46.1818" height="27.2727">
   <ellipse/>
  </object>
  <object id="49" x="326" y="97.2727" width="50.7273" height="29.6364">
   <ellipse/>
  </object>
  <object id="50" x="488.667" y="161.667" width="48.3333" height="28.3333">
   <ellipse/>
  </object>
  <object id="51" x="391.333" y="258.333" width="49" height="28.3333">
   <ellipse/>
  </object>
  <object id="52" x="426.727" y="359.273" width="43.8182" height="19.0909">
   <ellipse/>
  </object>
  <object id="53" x="70" y="515.25" width="49.75" height="27.75">
   <ellipse/>
  </object>
  <object id="54" x="264.75" y="713.5" width="46.5" height="22">
   <ellipse/>
  </object>
  <object id="55" x="837.333" y="870.667" width="54.6667" height="22.6667">
   <ellipse/>
  </object>
  <object id="56" x="873.5" y="614.5" width="42.5" height="19">
   <ellipse/>
  </object>
  <object id="57" x="841" y="581" width="43" height="22">
   <ellipse/>
  </object>
  <object id="58" x="875.5" y="291.5" width="41" height="23">
   <ellipse/>
  </object>
  <object id="59" x="874.5" y="69.5" width="46.5" height="21.5">
   <ellipse/>
  </object>
  <object id="60" x="872.5" y="37.5" width="41.5" height="20.5">
   <ellipse/>
  </object>
  <object id="61" x="745.5" y="40.5" width="42" height="16">
   <ellipse/>
  </object>
  <object id="67" x="930.667" y="2.66667" width="25.3333" height="954.667"/>
  <object id="71" x="1.33333" y="-1.33333" width="28" height="317.333"/>
  <object id="72" x="0" y="384" width="29.3333" height="549.333"/>
  <object id="77" x="132.5" y="260.5" width="118" height="22.5"/>
  <object id="78" x="580" y="704.5" width="119.5" height="26"/>
  <object id="79" x="585.5" y="738.5" width="48" height="27.5">
   <ellipse/>
  </object>
  <object id="82" x="457.667" y="397" width="44.3333" height="19"/>
  <object id="83" x="649.667" y="399" width="42.3333" height="15.6667"/>
  <object id="85" x="484.667" y="382.667" width="23.6667" height="18.6667"/>
  <object id="86" x="643.333" y="382" width="22.6667" height="22"/>
  <object id="90" x="-1.625" y="319.25" width="2.625" height="65.125"/>
  <object id="93" x="703.333" y="-0.666667" width="255.333" height="31.3333"/>
  <object id="95" x="-1.33333" y="-2" width="577.333" height="34"/>
  <object id="96" x="575" y="-3" width="128.25" height="6.5"/>
  <object id="98" x="1" y="920" width="641" height="38"/>
  <object id="99" x="767" y="927" width="192" height="30"/>
  <object id="100" x="638.5" y="952" width="128.5" height="9"/>
  <object id="105" x="679.091" y="1.09091" width="28.5455" height="22.5455">
   <ellipse/>
  </object>
  <object id="108" x="572.75" y="1" width="30.25" height="22">
   <ellipse/>
  </object>
  <object id="109" x="637" y="929" width="34" height="26.3333">
   <ellipse/>
  </object>
  <object id="111" x="745" y="931" width="31.6667" height="24.3333">
   <ellipse/>
  </object>
  <object id="112" x="524.125" y="470.375" width="5.375" height="6.875"/>
  <object id="113" x="621" y="470.125" width="4" height="7.125"/>
 </objectgroup>
 <objectgroup id="8" name="EnemySpawns">
  <object id="74" name="enemy spawn 1" x="200" y="350">
   <properties>
    <property name="enemyId" value="goblin"/>
   </properties>
   <point/>
  </object>
  <object id="101" name="enemy spawn 2" x="578" y="433">
   <properties>
    <property name="enemyId" value="dragonboss"/>
   </properties>
   <point/>
  </object>
  <object id="116" name="enemy spawn 3" x="241" y="834">
   <properties>
    <property name="enemyId" value="orc_warrior"/>
   </properties>
   <point/>
  </object>
 </objectgroup>
</map>
