<?xml version="1.0" encoding="UTF-8"?>
<map version="1.10" tiledversion="1.12.1" orientation="orthogonal" renderorder="right-down" width="30" height="30" tilewidth="32" tileheight="32" infinite="0" nextlayerid="16" nextobjectid="478">
  <tileset firstgid="1" source="../tiles/Tiles.tsx" />
  <layer id="1" name="Ground" width="30" height="30">
    <data encoding="csv">
2,2,2,2,2,2,2,2,2,2,2,2,2,2,2,2,2,2,2,2,2,2,2,2,2,2,2,2,2,2,
2,2,2,2,2,2,2,2,2,2,2,2,2,2,2,2,2,2,2,2,2,2,2,2,2,2,2,2,2,2,
2,2,2,2,2,9,9,9,9,2,2,2,2,2,2,2,2,2,2,2,2,2,9,9,9,2,2,2,2,2,
2,2,2,2,9,9,9,9,9,9,2,2,2,2,2,2,2,2,2,2,2,9,9,9,9,9,2,2,2,2,
2,2,2,2,9,9,9,9,9,9,2,2,2,2,2,2,2,2,2,2,9,9,9,9,9,9,2,2,2,2,
2,2,2,2,9,9,9,9,9,9,2,2,2,2,2,2,2,2,2,9,9,9,9,9,9,9,2,2,2,2,
2,2,2,2,2,2,2,2,2,2,2,2,2,2,2,2,2,2,9,9,9,9,2,2,2,2,2,2,2,2,
2,2,2,2,2,2,2,2,2,2,2,2,2,2,2,2,2,9,9,9,9,2,2,2,2,2,2,2,2,2,
2,2,2,2,2,2,2,2,2,2,2,2,9,9,9,9,9,9,9,9,2,2,2,2,2,2,2,2,2,2,
2,2,2,2,2,2,2,2,2,2,2,9,9,9,9,9,9,9,9,2,2,2,2,2,2,2,2,2,2,2,
2,2,2,2,2,2,2,2,2,2,9,9,9,9,9,9,2,2,2,2,2,2,2,2,2,2,2,2,2,2,
2,2,2,2,2,2,2,2,2,9,9,9,9,9,9,9,2,2,2,2,2,2,2,2,2,2,2,2,2,2,
2,2,2,2,2,2,2,2,2,2,9,9,9,9,9,9,2,2,2,2,2,2,2,2,2,2,2,2,2,2,
2,2,2,2,2,2,2,2,2,2,2,2,9,9,9,9,9,9,2,2,2,2,2,2,2,2,2,2,2,2,
2,2,2,2,2,2,2,2,2,2,9,9,9,9,9,9,9,9,9,2,2,2,2,2,2,2,2,2,2,2,
2,2,2,2,2,2,2,2,9,9,9,9,9,9,9,9,9,9,9,9,9,9,9,9,9,2,2,2,2,2,
2,2,2,2,2,2,2,2,2,2,2,2,9,9,9,9,9,9,9,9,9,9,9,9,2,2,2,2,2,2,
2,2,2,2,2,2,2,2,2,2,2,2,9,9,2,2,2,2,2,2,2,2,2,2,2,2,2,2,2,2,
2,2,2,2,2,2,2,2,2,2,2,2,9,9,2,2,2,2,2,2,2,2,2,2,2,2,2,2,2,2,
2,2,2,9,9,9,9,9,2,2,2,2,2,2,2,2,2,2,2,2,2,2,2,2,2,2,2,2,2,2,
2,2,2,2,9,9,9,9,9,2,2,2,2,2,2,2,2,2,2,2,2,2,2,2,2,2,2,2,2,2,
2,2,2,2,9,9,2,2,2,2,2,2,2,2,2,2,2,2,2,2,2,2,2,2,9,9,2,2,2,2,
2,2,2,2,9,9,2,2,2,2,2,2,2,2,2,2,2,2,2,2,2,2,2,2,2,9,9,2,2,2,
2,2,2,2,2,2,2,2,2,2,2,2,2,2,2,2,2,2,2,2,2,2,2,9,9,9,9,9,9,2,
2,2,2,2,2,2,2,2,2,2,2,2,2,2,2,2,2,2,2,2,2,2,9,9,9,9,9,9,9,2,
2,2,2,2,2,2,2,2,2,2,2,2,2,2,2,2,2,2,2,2,2,2,9,9,9,9,9,9,9,2,
2,2,2,2,2,2,2,2,2,2,2,2,2,2,2,2,2,2,2,2,2,2,2,9,9,9,9,2,2,2,
2,2,2,2,2,2,2,2,2,2,2,2,2,2,2,2,2,2,2,2,2,2,2,2,2,2,2,2,2,2,
2,2,2,2,2,2,2,2,2,2,2,2,2,2,2,2,2,2,2,2,2,2,2,2,2,2,2,2,2,2,
2,2,2,2,2,2,2,2,2,2,2,2,2,2,2,2,2,2,2,2,2,2,2,2,2,2,2,2,2,2
</data>
  </layer>
  <layer id="2" name="Detail Ground" width="30" height="30">
    <data encoding="csv">
0,0,0,0,0,0,0,0,0,0,0,0,0,0,0,0,0,0,0,0,0,0,0,0,0,0,0,0,0,0,
0,0,0,0,0,0,0,0,0,0,0,0,0,0,0,0,0,0,0,0,0,0,0,0,0,0,0,0,0,0,
0,0,0,0,0,0,0,0,0,0,0,0,0,0,0,0,0,0,0,0,0,0,0,0,0,0,0,0,0,0,
0,0,0,0,0,0,0,0,0,0,0,0,0,0,0,0,0,0,0,0,0,0,0,0,0,0,0,0,0,0,
0,0,0,0,0,0,0,0,0,0,0,0,0,0,0,0,0,0,0,0,0,0,0,0,0,0,0,0,0,0,
0,0,0,0,0,0,3,3,0,0,0,0,0,0,0,0,0,0,0,0,0,0,0,0,0,0,0,0,0,0,
0,0,0,0,0,0,3,3,0,0,0,0,0,0,0,0,0,0,0,0,0,0,3,3,3,0,0,0,0,0,
0,0,0,0,0,0,3,3,0,0,0,0,0,0,0,0,0,0,0,0,0,0,3,3,3,0,0,0,0,0,
0,0,0,0,0,0,3,3,0,0,0,0,0,0,0,0,0,0,0,0,0,0,3,3,3,0,0,0,0,0,
0,0,0,0,0,0,3,3,0,0,0,0,0,0,0,0,0,0,0,0,0,0,3,3,3,0,0,0,0,0,
0,0,0,0,0,0,3,3,0,0,0,0,0,0,0,0,0,0,0,0,0,0,3,3,3,0,0,0,0,0,
0,0,0,0,0,0,3,3,0,0,0,0,0,0,0,0,0,0,0,0,0,0,3,3,3,0,0,0,0,0,
0,0,0,0,0,0,3,3,0,0,0,0,3,3,0,0,0,0,0,0,0,0,3,3,3,3,3,3,3,3,
0,0,0,0,0,0,3,3,0,0,0,0,3,3,3,3,3,3,3,3,3,3,3,3,3,3,3,3,3,3,
0,0,0,0,0,0,3,3,3,3,3,3,3,3,3,3,3,3,3,3,3,3,3,3,3,3,0,0,0,0,
0,0,0,0,0,0,0,3,3,3,3,3,3,3,3,3,3,3,3,3,3,3,3,3,3,0,0,0,0,0,
0,0,0,0,0,0,0,0,0,0,0,0,3,3,3,3,3,3,3,3,3,3,3,3,0,0,0,0,0,0,
0,0,0,0,0,0,0,0,0,0,0,0,3,3,0,0,0,0,0,0,0,0,0,0,0,0,0,0,0,0,
0,0,0,0,0,0,0,0,0,0,0,0,3,3,0,0,0,0,0,0,0,0,0,0,0,0,0,0,0,0,
0,0,0,0,0,0,0,0,0,0,0,0,3,3,0,0,0,0,0,0,0,0,0,0,0,0,0,0,0,0,
0,0,0,0,0,0,3,3,0,0,0,0,3,3,0,0,0,0,0,0,0,0,0,0,0,0,0,0,0,0,
0,0,0,0,0,0,3,3,0,0,0,0,3,3,0,0,0,0,0,0,0,0,0,0,0,0,0,0,0,0,
0,0,0,0,0,0,3,3,3,0,0,0,3,3,0,0,0,0,0,0,0,0,0,3,3,0,0,0,0,0,
0,0,0,0,0,0,0,3,3,3,3,3,3,3,3,3,3,3,3,3,3,3,3,3,3,0,0,0,0,0,
0,0,0,0,0,0,0,0,3,3,3,3,3,3,3,3,3,3,3,3,3,3,3,3,0,0,0,0,0,0,
0,0,0,0,0,0,0,0,0,0,0,0,0,0,0,0,0,0,0,0,0,0,0,0,0,0,0,0,0,0,
0,0,0,0,0,0,0,0,0,0,0,0,0,0,0,0,0,0,0,0,0,0,0,0,0,0,0,0,0,0,
0,0,0,0,0,0,0,0,0,0,0,0,0,0,0,0,0,0,0,0,0,0,0,0,0,0,0,0,0,0,
0,0,0,0,0,0,0,0,0,0,0,0,0,0,0,0,0,0,0,0,0,0,0,0,0,0,0,0,0,0,
0,0,0,0,0,0,0,0,0,0,0,0,0,0,0,0,0,0,0,0,0,0,0,0,0,0,0,0,0,0
</data>
  </layer>
  <layer id="5" name="Object" width="30" height="30">
    <data encoding="csv">
10,10,10,10,10,10,10,10,10,10,10,10,10,10,10,10,10,10,10,10,10,10,10,10,10,10,10,10,10,10,
10,10,10,10,10,10,10,10,10,10,10,10,10,10,10,10,10,10,10,10,10,10,10,10,10,10,10,10,10,10,
10,10,10,10,0,0,0,0,0,0,0,0,0,0,0,0,0,0,0,0,0,0,0,0,0,10,10,10,10,10,
10,10,10,0,0,0,0,0,0,0,0,0,0,11,11,0,0,0,0,0,0,0,0,0,0,0,10,10,10,10,
10,10,0,0,0,0,0,0,0,0,0,0,0,11,11,11,0,0,0,0,0,0,0,0,0,0,0,10,10,10,
10,10,0,0,0,0,0,0,0,0,11,0,0,0,11,11,11,0,0,0,0,0,0,0,0,0,0,10,10,10,
10,10,10,0,11,11,0,0,11,11,11,0,0,0,11,11,5,5,0,0,0,0,0,0,0,4,5,10,10,10,
10,10,10,0,0,0,0,0,4,4,0,0,0,0,0,5,5,0,0,0,0,0,0,0,0,0,0,10,10,10,
10,10,10,0,0,0,0,0,4,4,0,0,0,0,0,0,0,0,0,0,0,0,0,0,0,0,0,10,10,10,
10,10,10,0,0,0,0,0,0,0,0,0,0,0,0,0,0,0,0,0,0,0,0,0,0,0,0,0,10,10,
10,10,0,0,0,0,0,0,0,0,0,0,0,0,0,0,0,0,0,0,0,0,0,0,0,0,0,0,10,10,
10,10,10,0,0,0,0,0,0,0,0,0,0,0,0,0,0,0,0,0,0,0,0,0,0,0,0,0,10,10,
10,10,10,0,0,0,0,0,0,0,11,11,0,0,0,0,0,0,0,0,11,11,0,0,0,0,4,4,5,0,
10,10,10,0,0,0,0,0,0,0,0,0,0,0,11,11,0,0,0,0,11,11,0,0,0,0,0,4,5,0,
10,10,10,0,0,0,0,0,0,0,0,0,0,0,4,0,0,0,0,5,5,11,0,0,0,0,0,0,0,0,
10,10,10,0,0,0,0,0,0,0,0,0,0,0,0,0,0,0,0,0,0,0,0,0,0,0,0,10,10,10,
10,10,10,0,0,0,0,0,0,0,0,0,0,0,5,5,0,0,0,0,0,0,0,0,11,11,0,10,10,10,
10,10,10,0,0,0,0,0,0,0,0,0,0,0,0,0,0,0,0,0,0,0,0,0,0,11,0,10,10,10,
10,10,0,0,0,0,0,0,11,11,0,0,0,0,0,0,0,0,0,0,0,0,11,0,0,11,11,10,10,10,
10,10,0,0,0,0,0,0,0,11,0,0,0,0,0,0,0,0,0,0,0,11,11,0,0,0,0,10,10,10,
10,10,10,0,0,0,0,0,2,11,0,0,0,0,0,0,0,0,0,0,0,11,11,0,0,0,10,10,10,10,
10,10,10,0,0,0,0,0,11,11,0,0,0,0,0,0,0,0,0,0,0,0,11,0,0,0,10,10,10,10,
10,10,10,0,0,0,0,0,0,0,0,0,0,0,0,0,4,4,0,0,0,0,11,0,0,0,0,10,10,10,
10,10,10,0,4,4,0,0,0,0,0,0,0,0,0,0,0,0,0,0,0,0,0,0,0,0,0,10,10,10,
10,10,0,0,0,0,0,0,0,0,0,0,0,0,0,0,0,0,0,0,0,0,0,0,0,0,0,10,10,10,
10,10,0,0,0,0,0,0,0,0,0,0,0,0,0,0,0,0,0,0,0,0,0,0,0,0,0,10,10,10,
10,10,10,0,0,0,0,0,0,0,0,0,0,0,0,0,0,0,0,0,0,0,0,0,0,0,0,10,10,10,
10,10,10,10,0,0,0,0,0,0,0,0,0,0,0,0,0,0,0,0,0,0,0,0,0,0,0,10,10,10,
10,10,10,10,10,10,10,10,10,10,10,10,10,10,10,10,10,10,10,10,10,10,10,10,10,10,10,10,10,10,
10,10,10,10,10,10,10,10,10,10,10,10,10,10,10,10,10,10,10,10,10,10,10,10,10,10,10,10,10,10
</data>
  </layer>
  <layer id="4" name="Wall" width="30" height="30">
    <data encoding="csv">
0,0,0,0,0,0,0,0,0,0,0,0,0,0,0,0,0,0,0,0,0,0,0,0,0,0,0,0,0,0,
0,0,0,0,0,0,0,0,0,0,0,0,0,0,0,0,0,0,0,0,0,0,0,0,0,0,0,0,0,0,
0,0,0,0,0,0,0,0,0,0,0,0,0,0,0,0,0,0,0,0,0,0,0,0,0,0,0,0,0,0,
0,0,0,0,0,0,0,0,0,0,0,0,0,0,0,0,0,0,0,0,0,0,0,0,0,0,0,0,0,0,
0,0,0,0,0,0,0,0,0,0,0,0,0,0,0,0,0,0,0,0,0,0,0,0,0,0,0,0,0,0,
0,0,0,0,0,7,0,0,0,0,0,0,0,0,0,0,0,0,0,0,0,0,8,0,0,14,0,0,0,0,
0,0,0,0,0,0,0,0,0,0,0,0,0,0,0,0,0,0,0,0,0,0,0,0,0,0,0,0,0,0,
0,0,0,0,0,0,0,0,0,0,0,0,0,0,0,0,0,0,0,0,0,0,0,0,0,0,0,0,0,0,
0,0,0,0,0,0,0,0,0,0,0,0,0,0,0,0,0,0,0,0,0,0,0,0,0,0,0,0,0,0,
0,0,0,0,0,0,0,0,0,0,0,0,0,0,0,0,0,0,0,0,0,0,0,0,0,0,0,0,0,0,
0,0,0,0,0,0,0,0,0,0,0,0,0,0,0,0,0,0,0,0,0,0,0,0,0,0,0,0,0,0,
0,0,0,0,0,0,0,0,0,0,0,0,0,0,0,0,0,0,0,0,0,0,0,0,0,0,0,0,0,0,
0,0,0,0,0,0,0,0,0,0,0,7,0,0,0,0,0,0,0,0,0,0,0,0,0,0,0,0,0,0,
0,0,0,0,0,0,0,0,0,0,0,0,0,0,0,0,0,0,0,0,0,0,0,0,0,0,0,0,0,0,
0,0,0,0,0,0,0,0,0,0,0,0,0,0,0,0,0,0,0,0,0,0,0,0,0,0,0,0,0,0,
0,0,0,0,0,0,0,0,0,0,0,0,0,0,0,0,0,0,0,0,0,0,0,0,0,0,0,0,0,0,
0,0,0,0,0,0,0,0,0,0,0,0,0,0,0,0,0,0,0,0,0,0,0,0,0,0,14,0,0,0,
0,0,0,0,0,0,0,0,0,0,0,0,0,0,0,0,0,0,0,0,0,0,0,0,0,0,14,0,0,0,
0,0,0,0,0,0,0,0,0,0,0,0,0,0,0,0,0,0,0,0,0,0,0,0,0,0,14,0,0,0,
0,0,0,0,0,0,0,0,0,0,0,0,0,0,0,0,0,0,0,0,0,0,0,0,0,0,0,0,0,0,
0,0,0,0,0,7,0,0,0,0,0,0,0,0,0,0,0,0,0,0,0,0,0,0,0,0,0,0,0,0,
0,0,0,0,0,0,0,0,0,0,0,0,0,0,0,0,0,0,0,0,0,0,0,8,0,0,0,0,0,0,
0,0,0,0,14,0,0,0,0,0,0,0,0,0,0,0,0,0,0,0,0,0,0,0,0,0,0,0,0,0,
0,0,0,0,0,0,0,0,0,0,0,0,0,0,0,0,0,0,0,0,0,0,0,0,0,14,0,0,0,0,
0,0,0,0,0,0,0,0,0,0,0,0,0,0,0,0,0,0,0,0,0,0,0,0,0,0,0,0,0,0,
0,0,0,0,0,0,0,0,0,0,0,0,0,0,0,0,0,0,0,0,0,0,0,0,0,0,0,0,0,0,
0,0,0,0,0,0,0,0,0,0,0,0,0,0,0,0,0,0,0,0,0,0,0,0,0,0,0,0,0,0,
0,0,0,0,0,0,0,0,0,0,0,0,0,0,0,0,0,0,0,0,0,0,0,0,0,0,0,0,0,0,
0,0,0,0,0,0,0,0,0,0,0,0,0,0,0,0,0,0,0,0,0,0,0,0,0,0,0,0,0,0,
0,0,0,0,0,0,0,0,0,0,0,0,0,0,0,0,0,0,0,0,0,0,0,0,0,0,0,0,0,0
</data>
  </layer>
  <objectgroup id="12" name="collision">
    <object id="327" x="127.333" y="209" width="30" height="13.3333">
      <ellipse />
    </object>
    <object id="328" x="160.667" y="208.667" width="29" height="13.3333">
      <ellipse />
    </object>
    <object id="329" x="256.333" y="209" width="29.3333" height="12.3333">
      <ellipse />
    </object>
    <object id="330" x="289.667" y="208.333" width="27.3333" height="14">
      <ellipse />
    </object>
    <object id="331" x="321" y="208.667" width="29" height="14">
      <ellipse />
    </object>
    <object id="332" x="320.667" y="175.333" width="29" height="14.6667">
      <ellipse />
    </object>
    <object id="341" x="415.333" y="110.333" width="30.6667" height="15.3333">
      <ellipse />
    </object>
    <object id="342" x="447.333" y="108.333" width="31.3333" height="18.3333">
      <ellipse />
    </object>
    <object id="343" x="415.333" y="139.333" width="29.3333" height="20.3333">
      <ellipse />
    </object>
    <object id="344" x="448.333" y="141" width="29" height="16.3333">
      <ellipse />
    </object>
    <object id="345" x="481" y="142" width="28.6667" height="16.3333">
      <ellipse />
    </object>
    <object id="346" x="448.333" y="172.667" width="29" height="19">
      <ellipse />
    </object>
    <object id="347" x="480.667" y="170.667" width="28.3333" height="20">
      <ellipse />
    </object>
    <object id="349" x="512" y="173.333" width="29.3333" height="17.6667">
      <ellipse />
    </object>
    <object id="350" x="446.667" y="206" width="31.6667" height="16.6667">
      <ellipse />
    </object>
    <object id="351" x="479" y="206" width="31" height="15">
      <ellipse />
    </object>
    <object id="353" x="320.182" y="430.364" width="30" height="15.6364">
      <ellipse />
    </object>
    <object id="354" x="352.364" y="430" width="28.7273" height="17.2727">
      <ellipse />
    </object>
    <object id="355" x="447.091" y="428.909" width="31.4545" height="18.3636">
      <ellipse />
    </object>
    <object id="357" x="480.545" y="430" width="28.5455" height="15.6364">
      <ellipse />
    </object>
    <object id="358" x="254.333" y="588.667" width="32.3333" height="18.6667">
      <ellipse />
    </object>
    <object id="359" x="286.333" y="587" width="31.3333" height="19.6667">
      <ellipse />
    </object>
    <object id="361" x="288.333" y="618.667" width="29" height="20">
      <ellipse />
    </object>
    <object id="362" x="286.333" y="649.667" width="31.3333" height="21">
      <ellipse />
    </object>
    <object id="364" x="287.667" y="685" width="30.3333" height="18">
      <ellipse />
    </object>
    <object id="366" x="254.333" y="684" width="31.6667" height="18.6667">
      <ellipse />
    </object>
    <object id="368" x="672" y="619" width="28.3333" height="19">
      <ellipse />
    </object>
    <object id="369" x="705.667" y="619.667" width="28" height="19.6667">
      <ellipse />
    </object>
    <object id="370" x="703.333" y="588.333" width="30.6667" height="18">
      <ellipse />
    </object>
    <object id="371" x="672" y="651.667" width="29.6667" height="18.3333">
      <ellipse />
    </object>
    <object id="372" x="702" y="650.667" width="32.3333" height="20.3333">
      <ellipse />
    </object>
    <object id="373" x="705" y="683.333" width="28.3333" height="19.6667">
      <ellipse />
    </object>
    <object id="375" x="703.667" y="715.667" width="29.6667" height="19">
      <ellipse />
    </object>
    <object id="376" x="640.667" y="429" width="27.6667" height="18">
      <ellipse />
    </object>
    <object id="377" x="672.667" y="430.667" width="28.3333" height="15.3333">
      <ellipse />
    </object>
    <object id="378" x="671.333" y="459.667" width="30.3333" height="18">
      <ellipse />
    </object>
    <object id="379" x="256" y="235.5" width="18.5" height="19">
      <ellipse />
    </object>
    <object id="380" x="290" y="236.5" width="15.5" height="18.5">
      <ellipse />
    </object>
    <object id="381" x="258" y="269.5" width="15.5" height="17.5">
      <ellipse />
    </object>
    <object id="382" x="289" y="269" width="15.5" height="17">
      <ellipse />
    </object>
    <object id="383" x="450" y="460.5" width="15.5" height="18.5">
      <ellipse />
    </object>
    <object id="384" x="513.5" y="716.5" width="15.5" height="18.5">
      <ellipse />
    </object>
    <object id="385" x="546" y="718.5" width="15" height="16">
      <ellipse />
    </object>
    <object id="386" x="801.5" y="202.5" width="16" height="20">
      <ellipse />
    </object>
    <object id="387" x="832.333" y="207.333" width="13.3333" height="15.6667" />
    <object id="389" x="707" y="118" width="9.66667" height="73.6667" />
    <object id="390" x="708.333" y="115.667" width="81" height="10.3333" />
    <object id="391" x="784" y="114.667" width="3.66667" height="76" />
    <object id="392" x="712.667" y="163.667" width="73.6667" height="25.6667" />
    <object id="393" x="805" y="166.333" width="49.3333" height="24.3333" />
    <object id="394" x="803.667" y="130.667" width="9.66667" height="60" />
    <object id="395" x="845.667" y="132.333" width="8.66667" height="59" />
    <object id="396" x="803.333" y="130.667" width="52.3333" height="10.3333" />
    <object id="397" x="169.333" y="143.333" width="8" height="47.6667" />
    <object id="398" x="169" y="141.667" width="101.667" height="7" />
    <object id="399" x="262" y="139.667" width="8.33333" height="50.6667" />
    <object id="400" x="169.667" y="165.333" width="34.6667" height="25" />
    <object id="401" x="197.667" y="151.333" width="42.6667" height="29.6667" />
    <object id="402" x="236" y="162" width="33.6667" height="29" />
    <object id="403" x="361.5" y="369" width="7.5" height="47" />
    <object id="404" x="362" y="366.5" width="99.5" height="11.5" />
    <object id="405" x="456" y="364.5" width="7" height="51" />
    <object id="406" x="359.5" y="387" width="37" height="28" />
    <object id="407" x="388" y="376" width="46" height="28" />
    <object id="408" x="428.5" y="382.5" width="32.5" height="32" />
    <object id="409" x="480" y="238.5" width="14.5" height="17" />
    <object id="410" x="511.5" y="238.5" width="15.5" height="17.5" />
    <object id="411" x="511" y="207.5" width="14" height="15.5" />
    <object id="412" x="545.5" y="208.5" width="11" height="15" />
    <object id="413" x="608" y="463.333" width="13.6667" height="15.3333" />
    <object id="414" x="641" y="463" width="12.3333" height="15.6667" />
    <object id="415" x="132.5" y="673" width="6.5" height="60" />
    <object id="416" x="132.5" y="672" width="49" height="12.5" />
    <object id="417" x="177.5" y="669.5" width="3.5" height="64.5" />
    <object id="418" x="133" y="714" width="47.5" height="19.5" />
    <object id="419" x="168.5" y="622" width="9.5" height="48" />
    <object id="420" x="167.5" y="643" width="34.5" height="27.5" />
    <object id="421" x="198.5" y="632.5" width="40" height="28" />
    <object id="422" x="237" y="639" width="8" height="33" />
    <object id="423" x="237" y="645" width="33" height="25.5" />
    <object id="424" x="169" y="620.5" width="100.5" height="9" />
    <object id="425" x="262.5" y="620.5" />
    <object id="426" x="262.5" y="620.5" width="7" height="45" />
    <object id="427" x="129.5" y="751" width="15" height="18">
      <ellipse />
    </object>
    <object id="428" x="162" y="749.5" width="14.5" height="17">
      <ellipse />
    </object>
    <object id="429" x="448.667" y="558.333" width="13" height="17.6667" />
    <object id="430" x="481" y="559.333" width="12.3333" height="15" />
    <object id="431" x="804.667" y="746.333" width="50" height="20" />
    <object id="432" x="805" y="702" width="6" height="45.6667" />
    <object id="433" x="805.333" y="701" width="49" height="9.66667" />
    <object id="434" x="848" y="699.333" width="7" height="48.6667" />
    <object id="435" x="740.333" y="647.667" width="8.33333" height="54.6667" />
    <object id="436" x="741.333" y="646" width="78.3333" height="11.6667" />
    <object id="437" x="813.667" y="645.667" width="5.66667" height="54.6667" />
    <object id="438" x="745" y="681" width="71.3333" height="19.3333" />
    <object id="445" x="126" y="46.6667" width="680" height="18.6667" />
    <object id="446" x="93.9997" y="45.3333" width="35.3334" height="50.6667" />
    <object id="447" x="68" y="76" width="29.3333" height="52" />
    <object id="448" x="34.6667" y="109.333" width="33.3333" height="93.3334" />
    <object id="450" x="49.3333" y="202" width="49.3334" height="116" />
    <object id="451" x="38.6667" y="305.333" width="27.3334" height="68" />
    <object id="452" x="60" y="364" width="39.3333" height="210" />
    <object id="453" x="38.6667" y="566.667" width="28" height="86.6667" />
    <object id="455" x="52" y="652" width="48" height="116" />
    <object id="456" x="44" y="757.333" width="22.6667" height="104" />
    <object id="457" x="54.6667" y="846.666" width="44.6666" height="42" />
    <object id="458" x="86.6667" y="886" width="40.6666" height="26" />
    <object id="459" x="110.667" y="913.334" width="776" height="9.99997" />
    <object id="460" x="862.667" y="684" width="26.6667" height="214.667" />
    <object id="461" x="834.667" y="644" width="58.6667" height="49.3333" />
    <object id="462" x="862" y="490" width="35.3333" height="151.333" />
    <object id="466" x="896" y="462.667" width="65.3333" height="22.6666" />
    <object id="467" x="894.667" y="276" width="62.6667" height="108" />
    <object id="468" x="860" y="108" width="45.3333" height="180.666" />
    <object id="469" x="834.667" y="90.6667" width="50.6667" height="30.6667" />
    <object id="471" x="798" y="48" width="47.3333" height="48" />
  </objectgroup>
  <objectgroup id="14" name="spawn">
    <object id="474" name="spawn point" x="64" y="252">
      <point />
    </object>
  </objectgroup>
  <objectgroup id="15" name="EnemySpawns">
    <object id="475" name="enemy spawn 1" x="300" y="372">
      <properties>
        <property name="enemyId" value="goblin" />
      </properties>
      <point />
    </object>
    <object id="476" name="enemy spawn 2" x="510" y="372">
      <properties>
        <property name="enemyId" value="orc" />
      </properties>
      <point />
    </object>
    <object id="477" name="enemy spawn 3" x="722" y="372">
      <properties>
        <property name="enemyId" value="boss" />
      </properties>
      <point />
    </object>
  </objectgroup>
</map>